img/pages/gigabit/icon-email.svg

<?xml version="1.0" encoding="UTF-8" standalone="no"?>
<svg width="89px" height="56px" viewBox="0 0 89 56" version="1.1" xmlns="http://www.w3.org/2000/svg" xmlns:xlink="http://www.w3.org/1999/xlink">
    <!-- Generator: Sketch 40 (33762) - http://www.bohemiancoding.com/sketch -->
    <title>icon-community-question</title>
    <desc>Created with Sketch.</desc>
    <defs>
        <polygon id="path-1" points="0 0 89 0 89 56 0 56"></polygon>
    </defs>
    <g id="Symbols" stroke="none" stroke-width="1" fill="none" fill-rule="evenodd">
        <g id="gigabit-cta-footer" transform="translate(-87.000000, -3.000000)">
            <g id="icon-community-question">
                <g transform="translate(87.000000, 3.000000)">
                    <g id="Page-1">
                        <g>
                            <g id="icon-community-question">
                                <g id="Fill-1-Clipped">
                                    <mask id="mask-2" fill="white">
                                        <use xlink:href="#path-1"></use>
                                    </mask>
                                    <g id="path-1"></g>
                                    <path d="M60.0846542,24.9212108 L87.4921288,2.18672432 L87.4921288,53.3707243 L60.0846542,24.9212108 L60.0846542,24.9212108 Z M30.0810949,25.8883459 L44.0194,37.4500757 C44.1581797,37.5651027 44.3286373,37.6241297 44.5006034,37.6241297 C44.671061,37.6241297 44.8415186,37.5651027 44.9802983,37.4500757 L58.9186034,25.8883459 L86.4678746,54.4861838 L2.53182373,54.4861838 L30.0810949,25.8883459 L30.0810949,25.8883459 Z M44.5006034,35.8851027 L3.06280678,1.51321081 L85.9368915,1.51321081 L44.5006034,35.8851027 L44.5006034,35.8851027 Z M1.50907797,2.18672432 L28.9150441,24.9212108 L1.50907797,53.3707243 L1.50907797,2.18672432 L1.50907797,2.18672432 Z M89.0006034,0.756454054 C89.0006034,0.338724324 88.6627051,-0.000302702703 88.2463661,-0.000302702703 L0.754840678,-0.000302702703 C0.33699322,-0.000302702703 0.000603389832,0.338724324 0.000603389832,0.756454054 L0.000603389832,55.2429405 L0.000603389832,55.2489946 C0.00211186441,55.3307243 0.0232305085,55.4109405 0.0488745763,55.4881297 C0.0549084746,55.5047784 0.0534,55.5229405 0.0594338983,55.5395892 C0.0624508475,55.5456432 0.0699932203,55.5516973 0.0730101695,55.5577514 C0.110722034,55.6409946 0.162010169,55.7181838 0.226874576,55.7832649 C0.228383051,55.7832649 0.228383051,55.7862919 0.229891525,55.7878054 C0.255535593,55.8120216 0.288722034,55.8226162 0.317383051,55.8438054 C0.367162712,55.8801297 0.412416949,55.9194811 0.469738983,55.9421838 C0.561755932,55.9800216 0.656789831,55.9996973 0.754840678,55.9996973 L88.2463661,55.9996973 C88.3429085,55.9996973 88.4394508,55.9800216 88.5299593,55.9421838 C88.5872814,55.9194811 88.6325356,55.8801297 88.6823153,55.8438054 C88.7109763,55.8226162 88.7441627,55.8120216 88.7698068,55.7878054 C88.7713153,55.7862919 88.7728237,55.7832649 88.7743322,55.7832649 C88.8361797,55.7212108 88.8844508,55.6455351 88.9236712,55.5638054 C88.9281966,55.5547243 88.935739,55.5486703 88.9402644,55.5380757 C88.9462983,55.5259676 88.9447898,55.5093189 88.9493153,55.4956973 C88.9779763,55.4154811 88.9975864,55.3337514 88.9990949,55.2489946 C88.9990949,55.2474811 89.0006034,55.2459676 89.0006034,55.2429405 L89.0006034,0.756454054 L89.0006034,0.756454054 Z" id="Fill-1" fill="#E38300" mask="url(#mask-2)"></path>
                                </g>
                            </g>
                        </g>
                    </g>
                </g>
            </g>
        </g>
    </g>
</svg>

<svg width="89" height="56" viewBox="0 0 89 56" xmlns="http://www.w3.org/2000/svg" xmlns:xlink="http://www.w3.org/1999/xlink">
    <title>
        icon-community-question
    </title>
    <defs>
        <path id="a" d="M0 0h89v56H0z"/>
    </defs>
    <g fill="none" fill-rule="evenodd">
        <mask id="b" fill="#fff">
            <use xlink:href="#a"/>
        </mask>
        <path d="M60.085 24.92L87.492 2.188V53.37L60.085 24.92zm-30.004.968L44.02 37.45c.138.115.31.174.48.174.17 0 .342-.06.48-.174l13.94-11.562 27.548 28.598H2.532l27.55-28.598zm14.42 9.997L3.064 1.513h82.874L44.5 35.885zM1.51 2.187L28.914 24.92 1.51 53.37V2.188zM89 .757C89 .338 88.664 0 88.247 0H.756C.335 0 0 .34 0 .756V55.25c.002.08.023.16.05.238.005.017.003.035.01.052.002.006.01.012.013.018.038.083.09.16.154.225 0 0 0 .003.003.005.026.024.06.035.087.056.05.036.095.075.153.098.092.038.187.058.285.058h87.49c.098 0 .194-.02.285-.058.057-.023.103-.062.152-.098.03-.02.062-.032.088-.056 0-.002.003-.005.004-.005.062-.062.11-.137.15-.22.004-.008.012-.014.016-.025.006-.012.005-.03.01-.042.028-.08.048-.162.05-.247V.755z" fill="#E38300" mask="url(#b)"/>
    </g>
</svg>
